static/img/in-field/accordion-line-below-disabled-dark.svg

<svg width="179" height="57" viewBox="0 0 179 57" fill="none" xmlns="http://www.w3.org/2000/svg">
<g opacity="0.4">
<g clip-path="url(#clip0_7209_84227)">
<path d="M31.4932 37.875H29.667V23.792H24.6934V22.1699H36.4668V23.792H31.4932V37.875ZM40.6055 37.875H38.8223V26.1016H40.6055V37.875ZM38.6719 22.9111C38.6719 22.5029 38.7721 22.2057 38.9727 22.0195C39.1732 21.8262 39.4238 21.7295 39.7246 21.7295C40.0111 21.7295 40.2581 21.8262 40.4658 22.0195C40.6735 22.2129 40.7773 22.5101 40.7773 22.9111C40.7773 23.3122 40.6735 23.613 40.4658 23.8135C40.2581 24.0068 40.0111 24.1035 39.7246 24.1035C39.4238 24.1035 39.1732 24.0068 38.9727 23.8135C38.7721 23.613 38.6719 23.3122 38.6719 22.9111ZM48.4395 36.6182C48.7546 36.6182 49.0589 36.5967 49.3525 36.5537C49.6462 36.5036 49.8789 36.4535 50.0508 36.4033V37.7676C49.8574 37.8607 49.571 37.9359 49.1914 37.9932C48.819 38.0576 48.4824 38.0898 48.1816 38.0898C45.9043 38.0898 44.7656 36.8903 44.7656 34.4912V27.4873H43.0791V26.6279L44.7656 25.8867L45.5176 23.373H46.5488V26.1016H49.9648V27.4873H46.5488V34.416C46.5488 35.125 46.7171 35.6693 47.0537 36.0488C47.3903 36.4284 47.8522 36.6182 48.4395 36.6182ZM54.4473 37.875H52.6641V21.1602H54.4473V37.875ZM63.4521 38.0898C61.7119 38.0898 60.3369 37.5599 59.3271 36.5C58.3245 35.4401 57.8232 33.9684 57.8232 32.085C57.8232 30.1872 58.2887 28.6797 59.2197 27.5625C60.1579 26.4453 61.4147 25.8867 62.9902 25.8867C64.4655 25.8867 65.6328 26.3737 66.4922 27.3477C67.3516 28.3145 67.7812 29.5928 67.7812 31.1826V32.3105H59.6709C59.7067 33.6927 60.054 34.7419 60.7129 35.458C61.3789 36.1742 62.3135 36.5322 63.5166 36.5322C64.7842 36.5322 66.0374 36.2673 67.2764 35.7373V37.3271C66.6462 37.5993 66.0482 37.7926 65.4824 37.9072C64.9238 38.029 64.2471 38.0898 63.4521 38.0898ZM62.9688 27.3799C62.0234 27.3799 61.2679 27.6878 60.7021 28.3037C60.1436 28.9196 59.8141 29.7718 59.7139 30.8604H65.8691C65.8691 29.736 65.6185 28.8766 65.1172 28.2822C64.6159 27.6807 63.8997 27.3799 62.9688 27.3799Z" fill="#fff"/>
<path d="M155.95 25.425L153.45 22.925L146.5 29.825L139.55 22.925L137.05 25.425L146.5 34.825L155.95 25.425Z" fill="#fff"/>
</g>
<path d="M178.5 55.875H0.5V57.875H178.5V55.875Z" fill="#7D808D" mask="url(#path-1-inside-1_7209_84227)"/>
</g>
<defs>
<clipPath id="clip0_7209_84227">
<path d="M0.5 0.875H178.5V56.875H0.5V0.875Z" fill="#fff"/>
</clipPath>
</defs>
</svg>

<svg width="179" height="57" fill="none" xmlns="http://www.w3.org/2000/svg"><g opacity=".4"><g clip-path="url(#prefix__clip0_7209_84227)" fill="#fff"><path d="M31.493 37.875h-1.826V23.792h-4.974V22.17h11.774v1.622h-4.974v14.083zm9.113 0h-1.784V26.102h1.783v11.773zm-1.934-14.964c0-.408.1-.705.3-.892.201-.193.452-.29.753-.29.286 0 .533.097.74.29.208.194.312.491.312.892s-.104.702-.311.902a1.05 1.05 0 01-.741.29c-.301 0-.552-.096-.752-.29-.2-.2-.301-.5-.301-.902zm9.768 13.707c.315 0 .619-.021.913-.064.293-.05.526-.1.698-.15v1.364c-.194.093-.48.168-.86.225a5.979 5.979 0 01-1.01.097c-2.277 0-3.415-1.2-3.415-3.599v-7.004h-1.687v-.86l1.687-.74.752-2.514h1.03v2.729h3.417v1.385h-3.416v6.929c0 .709.168 1.253.505 1.633.336.38.798.57 1.386.57zm6.007 1.257h-1.783V21.16h1.783v16.715zm9.005.215c-1.74 0-3.115-.53-4.125-1.59-1.002-1.06-1.504-2.532-1.504-4.415 0-1.898.466-3.405 1.397-4.523.938-1.117 2.195-1.675 3.77-1.675 1.476 0 2.643.487 3.502 1.46.86.967 1.29 2.246 1.29 3.836v1.127H59.67c.036 1.383.383 2.432 1.042 3.148.666.716 1.6 1.074 2.804 1.074 1.267 0 2.52-.265 3.76-.795v1.59a9.113 9.113 0 01-1.795.58c-.558.122-1.235.183-2.03.183zm-.483-10.71c-.946 0-1.701.308-2.267.924-.558.616-.888 1.468-.988 2.556h6.155c0-1.124-.25-1.983-.752-2.578-.501-.601-1.217-.902-2.148-.902zM155.95 25.425l-2.5-2.5-6.95 6.9-6.95-6.9-2.5 2.5 9.45 9.4 9.45-9.4z"/></g><path d="M178.5 55.875H.5v2h178v-2z" fill="#7D808D" mask="url(#prefix__path-1-inside-1_7209_84227)"/></g><defs><clipPath id="prefix__clip0_7209_84227"><path d="M.5.875h178v56H.5v-56z" fill="#fff"/></clipPath></defs></svg>
